static/cards/FrenchDeck/default/card_hearts_07.svg

<svg width="219" height="304" viewBox="0 0 219 304" fill="none" xmlns="http://www.w3.org/2000/svg">
<g filter="url(#filter0_d_18_649)">
<g clip-path="url(#clip0_18_649)">
<rect x="8" y="4" width="203" height="288" rx="10" fill="white"/>
<path d="M19.5347 42.7588C19.5347 42.3184 19.6748 41.938 19.895 41.4976L30.0049 19.9365V19.7363H17.5928C16.3516 19.7363 15.751 19.0957 15.751 18.2148C15.751 17.314 16.3516 16.6733 17.5928 16.6733H31.8467C32.8877 16.6733 33.7485 17.394 33.7485 18.5752C33.7485 19.1357 33.4683 20.0566 33.0278 20.9976L22.8179 43.0391C22.4375 43.8398 21.957 44.3203 21.1162 44.3203C20.2954 44.3203 19.5347 43.6997 19.5347 42.7588Z" fill="#BC1E24"/>
<path d="M21.7347 53.0006C24.4518 53.042 25.5069 55.3984 25.8537 56.5094C25.8888 56.6218 26.1122 56.6217 26.1472 56.5093C26.4938 55.3983 27.5482 53.042 30.2653 53.0006C33.8229 52.9462 36.4995 56.9292 34.0587 60.9289C31.8832 64.4939 26.0821 71 26 71C25.9165 71 20.1169 64.4943 17.9413 60.9289C15.5005 56.9291 18.177 52.9462 21.7347 53.0006Z" fill="#BC1E24"/>
<path d="M199.465 253.241C199.465 253.682 199.325 254.062 199.105 254.502L188.995 276.063L188.995 276.264L201.407 276.264C202.648 276.264 203.249 276.904 203.249 277.785C203.249 278.686 202.648 279.327 201.407 279.327L187.153 279.327C186.112 279.327 185.251 278.606 185.251 277.425C185.251 276.864 185.532 275.943 185.972 275.002L196.182 252.961C196.563 252.16 197.043 251.68 197.884 251.68C198.705 251.68 199.465 252.3 199.465 253.241Z" fill="#BC1E24"/>
<path d="M197.265 242.999C194.548 242.958 193.493 240.602 193.146 239.491C193.111 239.378 192.888 239.378 192.853 239.491C192.506 240.602 191.452 242.958 188.735 242.999C185.177 243.054 182.501 239.071 184.941 235.071C187.117 231.506 192.918 225 193 225C193.083 225 198.883 231.506 201.059 235.071C203.499 239.071 200.823 243.054 197.265 242.999Z" fill="#BC1E24"/>
<path d="M55.2207 30.2514C61.7689 30.3516 64.3116 36.0461 65.1476 38.731C65.2321 39.0026 65.7704 39.0025 65.8549 38.7309C66.6901 36.0459 69.2313 30.3516 75.7794 30.2514C84.3533 30.1199 90.8039 39.7455 84.9216 49.4115C79.6786 58.0269 65.6979 73.75 65.5 73.75C65.2989 73.7499 51.3219 58.0278 46.0785 49.4115C40.1963 39.7454 46.6467 30.1199 55.2207 30.2514Z" fill="#BC1E24"/>
<path d="M55.2207 265.749C61.7689 265.648 64.3116 259.954 65.1476 257.269C65.2321 256.997 65.7704 256.997 65.8549 257.269C66.6901 259.954 69.2313 265.648 75.7794 265.749C84.3533 265.88 90.8039 256.255 84.9216 246.589C79.6786 237.973 65.6979 222.25 65.5 222.25C65.2989 222.25 51.3219 237.972 46.0785 246.589C40.1963 256.255 46.6467 265.88 55.2207 265.749Z" fill="#BC1E24"/>
<path d="M143.221 30.2514C149.769 30.3516 152.312 36.0461 153.148 38.731C153.232 39.0026 153.77 39.0025 153.855 38.7309C154.69 36.0459 157.231 30.3516 163.779 30.2514C172.353 30.1199 178.804 39.7455 172.922 49.4115C167.679 58.0269 153.698 73.75 153.5 73.75C153.299 73.7499 139.322 58.0278 134.079 49.4115C128.196 39.7454 134.647 30.1199 143.221 30.2514Z" fill="#BC1E24"/>
<path d="M55.2207 126.251C61.7689 126.352 64.3116 132.046 65.1476 134.731C65.2321 135.003 65.7704 135.003 65.8549 134.731C66.6901 132.046 69.2313 126.352 75.7794 126.251C84.3533 126.12 90.8039 135.745 84.9216 145.411C79.6786 154.027 65.6979 169.75 65.5 169.75C65.2989 169.75 51.3219 154.028 46.0785 145.411C40.1963 135.745 46.6467 126.12 55.2207 126.251Z" fill="#BC1E24"/>
<path d="M99.2207 78.2514C105.769 78.3516 108.312 84.0461 109.148 86.731C109.232 87.0026 109.77 87.0025 109.855 86.7309C110.69 84.0459 113.231 78.3516 119.779 78.2514C128.353 78.1199 134.804 87.7455 128.922 97.4115C123.679 106.027 109.698 121.75 109.5 121.75C109.299 121.75 95.3219 106.028 90.0785 97.4115C84.1963 87.7454 90.6467 78.1199 99.2207 78.2514Z" fill="#BC1E24"/>
<path d="M143.221 126.251C149.769 126.352 152.312 132.046 153.148 134.731C153.232 135.003 153.77 135.003 153.855 134.731C154.69 132.046 157.231 126.352 163.779 126.251C172.353 126.12 178.804 135.745 172.922 145.411C167.679 154.027 153.698 169.75 153.5 169.75C153.299 169.75 139.322 154.028 134.079 145.411C128.196 135.745 134.647 126.12 143.221 126.251Z" fill="#BC1E24"/>
<path d="M143.221 265.749C149.769 265.648 152.312 259.954 153.148 257.269C153.232 256.997 153.77 256.997 153.855 257.269C154.69 259.954 157.231 265.648 163.779 265.749C172.353 265.88 178.804 256.255 172.922 246.589C167.679 237.973 153.698 222.25 153.5 222.25C153.299 222.25 139.322 237.972 134.079 246.589C128.196 256.255 134.647 265.88 143.221 265.749Z" fill="#BC1E24"/>
</g>
</g>
<defs>
<filter id="filter0_d_18_649" x="0" y="0" width="219" height="304" filterUnits="userSpaceOnUse" color-interpolation-filters="sRGB">
<feFlood flood-opacity="0" result="BackgroundImageFix"/>
<feColorMatrix in="SourceAlpha" type="matrix" values="0 0 0 0 0 0 0 0 0 0 0 0 0 0 0 0 0 0 127 0" result="hardAlpha"/>
<feOffset dy="4"/>
<feGaussianBlur stdDeviation="4"/>
<feComposite in2="hardAlpha" operator="out"/>
<feColorMatrix type="matrix" values="0 0 0 0 0.614771 0 0 0 0 0.70094 0 0 0 0 0.806257 0 0 0 1 0"/>
<feBlend mode="normal" in2="BackgroundImageFix" result="effect1_dropShadow_18_649"/>
<feBlend mode="normal" in="SourceGraphic" in2="effect1_dropShadow_18_649" result="shape"/>
</filter>
<clipPath id="clip0_18_649">
<rect x="8" y="4" width="203" height="288" rx="10" fill="white"/>
</clipPath>
</defs>
</svg>

<svg xmlns="http://www.w3.org/2000/svg" width="219" height="304" fill="none" viewBox="0 0 219 304"><g filter="url(#a)"><g clip-path="url(#b)"><rect width="203" height="288" x="8" y="4" fill="#fff" rx="10"/><path fill="#bc1e24" d="M19.535 42.759c0-.44.14-.821.36-1.261l10.11-21.561v-.2H17.593c-1.241 0-1.842-.641-1.842-1.522 0-.901.6-1.542 1.842-1.542h14.254c1.04 0 1.901.721 1.901 1.902 0 .56-.28 1.482-.72 2.423l-10.21 22.041c-.38.8-.861 1.281-1.702 1.281-.82 0-1.581-.62-1.581-1.561M21.735 53c2.717.042 3.772 2.398 4.119 3.51.035.112.258.112.293 0 .347-1.112 1.401-3.468 4.118-3.51 3.558-.054 6.234 3.93 3.794 7.929C31.883 64.494 26.082 71 26 71c-.084 0-5.883-6.506-8.059-10.071-2.44-4 .236-7.983 3.794-7.928M199.465 253.241c0 .441-.14.821-.36 1.261l-10.11 21.561v.201h12.412c1.241 0 1.842.64 1.842 1.521 0 .901-.601 1.542-1.842 1.542h-14.254c-1.041 0-1.902-.721-1.902-1.902 0-.561.281-1.482.721-2.423l10.21-22.041c.381-.801.861-1.281 1.702-1.281.821 0 1.581.62 1.581 1.561M197.265 242.999c-2.717-.041-3.772-2.397-4.119-3.508-.035-.113-.258-.113-.293 0-.347 1.111-1.401 3.467-4.118 3.508-3.558.055-6.234-3.928-3.794-7.928C187.117 231.506 192.918 225 193 225c.083 0 5.883 6.506 8.059 10.071 2.44 4-.236 7.983-3.794 7.928M55.22 30.251c6.549.1 9.092 5.795 9.928 8.48.084.272.622.271.707 0 .835-2.685 3.376-8.38 9.924-8.48 8.574-.131 15.025 9.494 9.143 19.16C79.679 58.027 65.698 73.75 65.5 73.75c-.201 0-14.178-15.722-19.421-24.339-5.883-9.666.568-19.291 9.142-19.16M55.22 265.749c6.549-.101 9.092-5.795 9.928-8.48.084-.272.622-.272.707 0 .835 2.685 3.376 8.379 9.924 8.48 8.574.131 15.025-9.494 9.143-19.16-5.243-8.616-19.224-24.339-19.422-24.339-.201 0-14.178 15.722-19.421 24.339-5.883 9.666.568 19.291 9.142 19.16M143.221 30.251c6.548.1 9.091 5.795 9.927 8.48.084.272.622.271.707 0 .835-2.685 3.376-8.38 9.924-8.48 8.574-.131 15.025 9.494 9.143 19.16-5.243 8.616-19.224 24.339-19.422 24.339-.201 0-14.178-15.722-19.421-24.339-5.883-9.666.568-19.291 9.142-19.16M55.22 126.251c6.549.101 9.092 5.795 9.928 8.48.084.272.622.272.707 0 .835-2.685 3.376-8.379 9.924-8.48 8.574-.131 15.025 9.494 9.143 19.16-5.243 8.616-19.224 24.339-19.422 24.339-.201 0-14.178-15.722-19.421-24.339-5.883-9.666.568-19.291 9.142-19.16M99.22 78.251c6.549.1 9.092 5.795 9.928 8.48.084.272.622.272.707 0 .835-2.685 3.376-8.38 9.924-8.48 8.574-.131 15.025 9.495 9.143 19.16-5.243 8.616-19.224 24.339-19.422 24.339-.201 0-14.178-15.722-19.421-24.338-5.883-9.667.568-19.292 9.142-19.16M143.221 126.251c6.548.101 9.091 5.795 9.927 8.48.084.272.622.272.707 0 .835-2.685 3.376-8.379 9.924-8.48 8.574-.131 15.025 9.494 9.143 19.16-5.243 8.616-19.224 24.339-19.422 24.339-.201 0-14.178-15.722-19.421-24.339-5.883-9.666.568-19.291 9.142-19.16M143.221 265.749c6.548-.101 9.091-5.795 9.927-8.48.084-.272.622-.272.707 0 .835 2.685 3.376 8.379 9.924 8.48 8.574.131 15.025-9.494 9.143-19.16-5.243-8.616-19.224-24.339-19.422-24.339-.201 0-14.178 15.722-19.421 24.339-5.883 9.666.568 19.291 9.142 19.16"/></g></g><defs><clipPath id="b"><rect width="203" height="288" x="8" y="4" fill="#fff" rx="10"/></clipPath><filter id="a" width="219" height="304" x="0" y="0" color-interpolation-filters="sRGB" filterUnits="userSpaceOnUse"><feFlood flood-opacity="0" result="BackgroundImageFix"/><feColorMatrix in="SourceAlpha" result="hardAlpha" values="0 0 0 0 0 0 0 0 0 0 0 0 0 0 0 0 0 0 127 0"/><feOffset dy="4"/><feGaussianBlur stdDeviation="4"/><feComposite in2="hardAlpha" operator="out"/><feColorMatrix values="0 0 0 0 0.614771 0 0 0 0 0.70094 0 0 0 0 0.806257 0 0 0 1 0"/><feBlend in2="BackgroundImageFix" result="effect1_dropShadow_18_649"/><feBlend in="SourceGraphic" in2="effect1_dropShadow_18_649" result="shape"/></filter></defs></svg>
